flaticon/constructions/relief-valve-2.svg

<svg xmlns="http://www.w3.org/2000/svg" width="32" height="32" viewBox="0 0 24 24">
    <path d="M 17.359375 16 L 11.476562 16 C 10.675781 16 10.039062 16.679688 10.039062 17.480469 L 10.039062 18.5625 C 10.039062 19.363281 10.675781 20 11.476562 20 L 17.359375 20 C 18.160156 20 18.800781 19.363281 18.839844 18.5625 L 18.839844 17.480469 C 18.839844 16.640625 18.160156 16 17.359375 16 Z M 17.359375 19.203125 L 11.476562 19.203125 C 11.117188 19.203125 10.835938 18.921875 10.835938 18.5625 L 10.835938 18.402344 L 11.996094 18.402344 C 12.238281 18.402344 12.398438 18.242188 12.398438 18 C 12.398438 17.761719 12.238281 17.601562 11.996094 17.601562 L 10.835938 17.601562 L 10.835938 17.480469 C 10.835938 17.082031 11.117188 16.800781 11.476562 16.800781 L 17.359375 16.800781 C 17.757812 16.800781 18.039062 17.121094 18.039062 17.480469 L 18.039062 17.601562 L 16.796875 17.601562 C 16.558594 17.601562 16.398438 17.761719 16.398438 18 C 16.398438 18.242188 16.558594 18.402344 16.796875 18.402344 L 18.039062 18.402344 L 18.039062 18.5625 C 18.039062 18.921875 17.71875 19.203125 17.359375 19.203125 Z M 17.359375 19.203125"/>
    <path d="M 23.601562 19.203125 L 20.398438 19.203125 L 20.398438 16.800781 L 23.601562 16.800781 C 23.839844 16.800781 24 16.640625 24 16.402344 C 24 16.160156 23.839844 16 23.601562 16 L 20.398438 16 L 20.398438 15.878906 C 20.398438 15.082031 19.757812 14.441406 18.957031 14.441406 L 16.359375 14.441406 L 16.359375 12.421875 C 18.261719 11.648438 19.597656 9.785156 19.597656 7.597656 C 19.597656 4.71875 17.277344 2.398438 14.398438 2.398438 C 11.515625 2.398438 9.195312 4.71875 9.195312 7.597656 C 9.195312 9.769531 10.515625 11.621094 12.398438 12.402344 L 12.398438 14.441406 L 9.878906 14.441406 C 9.035156 14.441406 8.398438 15.082031 8.398438 15.878906 L 8.398438 16.054688 C 6.824219 15.855469 5.597656 14.503906 5.597656 12.878906 L 5.597656 2.796875 C 5.597656 2.558594 5.4375 2.398438 5.195312 2.398438 C 4.957031 2.398438 4.796875 2.558594 4.796875 2.796875 L 4.796875 12.878906 C 4.796875 14.960938 6.394531 16.679688 8.398438 16.882812 L 8.398438 19.203125 C 5.035156 19 2.394531 16.28125 2.394531 12.921875 L 2.394531 11.480469 C 2.796875 11.398438 3.15625 11.199219 3.476562 10.917969 C 3.914062 10.480469 4.4375 9.320312 3.515625 7.839844 L 2.46875 6.382812 L 2.394531 6.273438 L 2.394531 5.199219 L 3.195312 5.199219 C 3.4375 5.199219 3.597656 5.039062 3.597656 4.796875 L 3.597656 4 L 3.996094 4 C 4.234375 4 4.394531 3.839844 4.394531 3.597656 C 4.394531 3.359375 4.234375 3.199219 3.996094 3.199219 L 3.195312 3.199219 C 2.957031 3.199219 2.796875 3.359375 2.796875 3.597656 L 2.796875 4.398438 L 2.394531 4.398438 L 2.394531 2.796875 C 2.394531 2.558594 2.234375 2.398438 1.996094 2.398438 C 1.753906 2.398438 1.59375 2.558594 1.59375 2.796875 L 1.59375 6.269531 L 0.476562 7.839844 C -0.164062 8.917969 -0.164062 10.039062 0.515625 10.878906 C 0.554688 10.917969 0.554688 10.917969 0.554688 10.917969 C 0.828125 11.222656 1.191406 11.410156 1.59375 11.484375 L 1.59375 12.878906 C 1.59375 16.667969 4.621094 19.785156 8.398438 19.992188 L 8.398438 20.121094 C 8.398438 20.960938 9.078125 21.601562 9.878906 21.601562 L 18.957031 21.601562 C 19.757812 21.601562 20.398438 20.960938 20.398438 20.160156 L 20.398438 20 L 23.601562 20 C 23.839844 20 24 19.839844 24 19.601562 C 24 19.363281 23.839844 19.203125 23.601562 19.203125 Z M 15.597656 14.402344 L 13.199219 14.402344 L 13.199219 12.660156 C 13.222656 12.667969 13.25 12.675781 13.277344 12.679688 C 13.308594 12.6875 13.335938 12.691406 13.367188 12.699219 C 13.394531 12.703125 13.425781 12.710938 13.457031 12.714844 C 13.480469 12.71875 13.507812 12.726562 13.535156 12.730469 C 13.578125 12.734375 13.621094 12.742188 13.667969 12.75 C 13.695312 12.753906 13.726562 12.757812 13.757812 12.761719 C 13.785156 12.765625 13.8125 12.765625 13.835938 12.769531 C 13.878906 12.773438 13.921875 12.777344 13.960938 12.78125 C 13.984375 12.785156 14.003906 12.785156 14.023438 12.785156 C 14.074219 12.789062 14.121094 12.792969 14.171875 12.796875 C 14.1875 12.796875 14.203125 12.796875 14.222656 12.796875 C 14.28125 12.800781 14.339844 12.800781 14.398438 12.800781 C 14.457031 12.800781 14.515625 12.800781 14.574219 12.796875 C 14.589844 12.796875 14.609375 12.796875 14.625 12.796875 C 14.675781 12.792969 14.730469 12.789062 14.78125 12.785156 C 14.792969 12.785156 14.804688 12.785156 14.816406 12.785156 C 14.867188 12.78125 14.917969 12.773438 14.972656 12.769531 C 14.988281 12.765625 15.003906 12.765625 15.019531 12.761719 C 15.21875 12.738281 15.410156 12.707031 15.597656 12.660156 Z M 15.855469 11.753906 C 15.851562 11.757812 15.84375 11.757812 15.839844 11.761719 C 15.359375 11.917969 14.875 12 14.386719 12 C 14.371094 12 14.359375 12 14.347656 12 C 14.316406 12 14.285156 12 14.253906 11.996094 C 13.523438 11.972656 12.835938 11.773438 12.238281 11.4375 C 12.757812 10.757812 13.558594 10.398438 14.398438 10.398438 C 15.238281 10.398438 16.039062 10.757812 16.558594 11.4375 C 16.335938 11.5625 16.101562 11.667969 15.855469 11.753906 Z M 9.996094 7.597656 C 9.996094 5.160156 11.996094 3.199219 14.398438 3.199219 C 16.839844 3.199219 18.800781 5.160156 18.800781 7.597656 C 18.800781 8.957031 18.191406 10.167969 17.230469 10.972656 C 16.535156 10.105469 15.5 9.597656 14.398438 9.597656 C 13.304688 9.597656 12.273438 10.097656 11.578125 10.984375 C 10.609375 10.179688 9.996094 8.964844 9.996094 7.597656 Z M 1.15625 8.238281 L 1.980469 7.058594 L 2.835938 8.238281 C 3.054688 8.597656 3.164062 8.921875 3.195312 9.203125 C 3.207031 9.308594 3.210938 9.40625 3.207031 9.496094 C 3.203125 9.542969 3.199219 9.585938 3.191406 9.628906 C 3.148438 9.953125 3.007812 10.1875 2.875 10.320312 C 2.636719 10.558594 2.316406 10.679688 1.996094 10.679688 C 1.976562 10.679688 1.957031 10.679688 1.9375 10.683594 C 1.636719 10.671875 1.335938 10.5625 1.117188 10.359375 C 0.675781 9.800781 0.714844 9.039062 1.15625 8.238281 Z M 19.597656 20.121094 C 19.597656 20.523438 19.320312 20.800781 18.957031 20.800781 L 9.878906 20.800781 C 9.476562 20.800781 9.195312 20.480469 9.195312 20.121094 L 9.195312 15.839844 C 9.195312 15.199219 9.878906 15.242188 9.878906 15.242188 L 18.957031 15.242188 C 19.320312 15.242188 19.597656 15.519531 19.597656 15.878906 Z M 19.597656 20.121094"/>
    <path d="M11.597656 7.597656C11.597656 7.398438 11.4375 7.199219 11.199219 7.199219 10.957031 7.199219 10.796875 7.359375 10.796875 7.597656 10.796875 7.839844 10.957031 8 11.199219 8 11.4375 8 11.597656 7.839844 11.597656 7.597656zM17.597656 8C17.839844 8 18 7.839844 18 7.597656 18 7.398438 17.839844 7.199219 17.597656 7.199219 17.359375 7.199219 17.199219 7.359375 17.199219 7.597656 17.199219 7.839844 17.359375 8 17.597656 8zM11.996094 6C12.238281 6 12.398438 5.839844 12.398438 5.597656 12.398438 5.398438 12.238281 5.199219 11.996094 5.199219 11.757812 5.199219 11.597656 5.359375 11.597656 5.597656 11.597656 5.839844 11.757812 6 11.996094 6zM14.398438 4.796875C14.636719 4.796875 14.796875 4.636719 14.796875 4.398438 14.796875 4.199219 14.636719 4 14.398438 4 14.15625 4 13.996094 4.160156 13.996094 4.398438 13.996094 4.636719 14.15625 4.796875 14.398438 4.796875zM16.796875 6C17.039062 6 17.199219 5.839844 17.199219 5.597656 17.199219 5.398438 17.039062 5.199219 16.796875 5.199219 16.558594 5.199219 16.398438 5.359375 16.398438 5.597656 16.398438 5.839844 16.558594 6 16.796875 6zM14.078125 8.640625C14.15625 8.757812 14.476562 8.839844 14.636719 8.679688 14.796875 8.558594 14.839844 8.277344 14.679688 8.121094L13.316406 6.519531C13.199219 6.359375 12.917969 6.320312 12.757812 6.480469 12.597656 6.597656 12.558594 6.878906 12.71875 7.039062zM14.078125 8.640625"/>
</svg>

<svg xmlns="http://www.w3.org/2000/svg" width="32" height="32" viewBox="0 0 24 24">
    <path d="M17.36 16h-5.883c-.801 0-1.438.68-1.438 1.48v1.082c0 .801.637 1.438 1.438 1.438h5.882c.801 0 1.442-.637 1.48-1.438V17.48c0-.84-.679-1.48-1.48-1.48zm0 3.203h-5.883a.634.634 0 0 1-.641-.64v-.16h1.16c.242 0 .402-.16.402-.403 0-.238-.16-.398-.402-.398h-1.16v-.122c0-.398.281-.68.64-.68h5.883c.399 0 .68.321.68.68v.122h-1.242c-.238 0-.399.16-.399.398 0 .242.16.402.399.402h1.242v.16c0 .36-.32.641-.68.641zm0 0"/>
    <path d="M23.602 19.203h-3.204v-2.402h3.204c.238 0 .398-.16.398-.399 0-.242-.16-.402-.398-.402h-3.204v-.121c0-.797-.64-1.438-1.441-1.438h-2.598v-2.02a5.196 5.196 0 0 0 3.239-4.823 5.19 5.19 0 0 0-5.2-5.2 5.19 5.19 0 0 0-5.203 5.2 5.192 5.192 0 0 0 3.203 4.804v2.04h-2.52c-.843 0-1.48.64-1.48 1.437v.176a3.212 3.212 0 0 1-2.8-3.176V2.797c0-.238-.16-.399-.403-.399-.238 0-.398.16-.398.399v10.082c0 2.082 1.598 3.8 3.601 4.004v2.32C5.035 19 2.395 16.281 2.395 12.922V11.48a2.35 2.35 0 0 0 1.082-.562c.437-.438.96-1.598.039-3.078L2.469 6.383l-.074-.11V5.2h.8c.243 0 .403-.16.403-.402V4h.398c.238 0 .399-.16.399-.402 0-.239-.16-.399-.399-.399h-.8c-.239 0-.4.16-.4.399v.8h-.401V2.797c0-.238-.16-.399-.399-.399-.242 0-.402.16-.402.399V6.27L.477 7.84c-.641 1.078-.641 2.2.039 3.039l.039.039c.273.305.636.492 1.039.566v1.395c0 3.789 3.027 6.906 6.804 7.113v.13c0 .839.68 1.48 1.48 1.48h9.079c.8 0 1.441-.641 1.441-1.442V20h3.204c.238 0 .398-.16.398-.398 0-.239-.16-.399-.398-.399zm-8.004-4.8h-2.399V12.66c.024.008.051.016.078.02.032.008.059.011.09.02.028.003.059.01.09.015.023.004.05.012.078.015.043.004.086.012.133.02l.09.012c.027.004.055.004.078.008l.125.011a.357.357 0 0 0 .062.004l.149.012h.05c.06.004.118.004.176.004.059 0 .118 0 .176-.004h.051l.156-.012h.035c.051-.004.102-.012.157-.015.015-.004.03-.004.047-.008.199-.024.39-.055.578-.102zm.257-2.65c-.003.005-.011.005-.015.009-.48.156-.965.238-1.453.238h-.04c-.03 0-.062 0-.093-.004a4.394 4.394 0 0 1-2.016-.559c.52-.68 1.32-1.039 2.16-1.039.84 0 1.641.36 2.16 1.04-.222.124-.456.23-.703.316zM9.996 7.599c0-2.438 2-4.399 4.402-4.399a4.389 4.389 0 0 1 4.403 4.399c0 1.359-.61 2.57-1.57 3.375a3.63 3.63 0 0 0-2.833-1.375 3.57 3.57 0 0 0-2.82 1.386 4.382 4.382 0 0 1-1.582-3.386zm-8.84.64l.824-1.18.856 1.18c.219.36.328.684.36.965a1.375 1.375 0 0 1-.004.426 1.204 1.204 0 0 1-.317.691c-.238.239-.559.36-.879.36-.02 0-.039 0-.058.004a1.285 1.285 0 0 1-.82-.325c-.442-.558-.403-1.32.038-2.12zm18.442 11.883c0 .402-.278.68-.641.68H9.879a.676.676 0 0 1-.684-.68V15.84c0-.64.684-.598.684-.598h9.078c.363 0 .64.278.64.637zm0 0"/>
    <path d="M11.598 7.598a.4.4 0 0 0-.399-.399c-.242 0-.402.16-.402.399 0 .242.16.402.402.402.239 0 .399-.16.399-.402zm0 0M17.598 8c.242 0 .402-.16.402-.402a.4.4 0 0 0-.402-.399c-.239 0-.399.16-.399.399 0 .242.16.402.399.402zm0 0M11.996 6c.242 0 .402-.16.402-.402a.4.4 0 0 0-.402-.399c-.238 0-.398.16-.398.399 0 .242.16.402.398.402zm0 0M14.398 4.797c.239 0 .399-.16.399-.399A.4.4 0 0 0 14.398 4c-.242 0-.402.16-.402.398 0 .239.16.399.402.399zm0 0M16.797 6c.242 0 .402-.16.402-.402a.4.4 0 0 0-.402-.399c-.238 0-.399.16-.399.399 0 .242.16.402.399.402zm0 0M14.078 8.64c.078.118.399.2.559.04.16-.121.203-.403.043-.559L13.316 6.52a.384.384 0 0 0-.558-.04.384.384 0 0 0-.04.56zm0 0"/>
</svg>
